src/main/resources/icons/AllIcons/nodes/nodejs.svg

<svg width="16" height="16" viewBox="0 0 16 16" fill="none" xmlns="http://www.w3.org/2000/svg">
<path fill-rule="evenodd" clip-rule="evenodd" d="M7.99141 14.9911C7.80559 14.9911 7.62104 14.9423 7.45813 14.8485L5.7607 13.8436C5.50717 13.7018 5.63088 13.6517 5.7145 13.6228C6.05253 13.5044 6.12114 13.4777 6.48195 13.2728C6.51988 13.2511 6.56952 13.2588 6.60833 13.2817L7.91237 14.0555C7.95946 14.081 8.02628 14.081 8.06993 14.0555L13.1545 11.1206C13.2016 11.0939 13.2321 11.0391 13.2321 10.9831V5.11587C13.2321 5.05733 13.2016 5.00514 13.1535 4.97587L8.07095 2.04351C8.02386 2.01551 7.9615 2.01551 7.91441 2.04351L2.83292 4.97587C2.78366 5.00387 2.75235 5.0586 2.75235 5.1146V10.9819C2.75235 11.0379 2.7829 11.0913 2.83126 11.1181L4.22363 11.9224C4.97963 12.3004 5.44163 11.855 5.44163 11.407V5.61605C5.44163 5.53333 5.50653 5.46969 5.58926 5.46969H6.23326C6.31344 5.46969 6.37963 5.53333 6.37963 5.61605V11.4095C6.37963 12.4175 5.82981 12.9966 4.87399 12.9966C4.57999 12.9966 4.34835 12.9966 3.70181 12.6784L2.36799 11.9097C2.03835 11.7188 1.83472 11.3624 1.83472 10.9819V5.1146C1.83472 4.73278 2.03835 4.37642 2.36799 4.18805L7.45763 1.25187C7.77963 1.06987 8.20726 1.06987 8.52672 1.25187L13.61 4.18933C13.9384 4.37896 14.1433 4.73405 14.1433 5.11587V10.9831C14.1433 11.3637 13.9384 11.7188 13.61 11.9097L8.52672 14.8459C8.36381 14.9401 8.17926 14.9884 7.9909 14.9884" fill="#689F63"/>
<path d="M9.56203 10.9481C7.3373 10.9481 6.87085 9.92691 6.87085 9.07036C6.87085 8.98891 6.93652 8.924 7.0181 8.924H7.67483C7.74738 8.924 7.80847 8.97681 7.81992 9.04847C7.9192 9.71767 8.21447 10.0552 9.55974 10.0552C10.6314 10.0552 11.087 9.81312 11.087 9.24485C11.087 8.91776 10.9572 8.67467 9.29247 8.51176C7.9001 8.37431 7.03974 8.06758 7.03974 6.95394C7.03974 5.92812 7.9052 5.31721 9.35483 5.31721C10.9826 5.31721 11.7896 5.88231 11.8914 7.09649C11.8952 7.13849 11.8799 7.17921 11.8519 7.20976C11.8239 7.23903 11.7845 7.25685 11.7437 7.25685H11.0832C11.0145 7.25685 10.9546 7.20849 10.9406 7.14231C10.7816 6.43849 10.3972 6.21321 9.35229 6.21321C8.18265 6.21321 8.04647 6.62049 8.04647 6.92594C8.04647 7.29631 8.20683 7.40449 9.78501 7.61321C11.3479 7.82067 12.0899 8.1134 12.0899 9.21176C12.0899 10.319 11.1659 10.9541 9.55465 10.9541L9.56203 10.9481Z" fill="#689F63"/>
</svg>

<svg width="16" height="16" viewBox="0 0 16 16" fill="none" xmlns="http://www.w3.org/2000/svg"><rect id="frame" width="16" height="16" fill="none"/><path fill-rule="evenodd" clip-rule="evenodd" d="M7.991 14.991a1.07 1.07 0 0 1-.533-.143l-1.697-1.004c-.254-.142-.13-.192-.046-.221a3.43 3.43 0 0 0 .767-.35c.038-.022.088-.014.126.009l1.304.774a.172.172 0 0 0 .158 0l5.085-2.935a.16.16 0 0 0 .077-.138V5.116c0-.059-.03-.11-.079-.14L8.072 2.044a.156.156 0 0 0-.157 0L2.833 4.976a.162.162 0 0 0-.08.139v5.867c0 .056.03.11.078.136l1.393.804c.756.378 1.218-.067 1.218-.515v-5.79c0-.084.065-.147.147-.147h.644c.08 0 .147.063.147.146v5.793c0 1.008-.55 1.588-1.506 1.588-.294 0-.526 0-1.172-.319l-1.334-.768a1.075 1.075 0 0 1-.533-.928V5.115c0-.382.203-.739.533-.927l5.09-2.936c.322-.182.75-.182 1.069 0l5.083 2.937c.328.19.533.545.533.927v5.867c0 .38-.205.736-.533.927l-5.083 2.936a1.068 1.068 0 0 1-.536.142" fill="#689F63"/><path d="M9.562 10.948c-2.225 0-2.691-1.021-2.691-1.878 0-.081.066-.146.147-.146h.657c.072 0 .133.053.145.124.1.67.394 1.007 1.74 1.007 1.071 0 1.527-.242 1.527-.81 0-.327-.13-.57-1.795-.733C7.9 8.374 7.04 8.068 7.04 6.954c0-1.026.865-1.637 2.315-1.637 1.628 0 2.435.565 2.536 1.78a.148.148 0 0 1-.147.16h-.66a.146.146 0 0 1-.143-.115c-.16-.704-.544-.929-1.589-.929-1.17 0-1.306.407-1.306.713 0 .37.16.478 1.739.687 1.563.208 2.305.5 2.305 1.599 0 1.107-.924 1.742-2.535 1.742l.007-.006z" fill="#689F63"/></svg>
